X: 19922
T: Jig Of Port Fleadh, The
R: jig
M: 6/8
K: Amajor
|:c2A BAF|ECE A (3cde|a2 e fec|fec BAB|
c2A BAF|E (3CDE A (3cde|a2 e fec|1 dBG A2B:|2 dBG Ace||
a2f gfe|fec Ace|aba (3gab g|agf efg|
a2f gfe|fec Ace|aec fdB|1 EFG A2e:|2 EFG A2b||

